coreui/free/cil-house.svg

<svg xmlns="http://www.w3.org/2000/svg" viewBox="0 0 512 512">
  <path fill="var(--ci-primary-color, currentColor)" d="M408,406.545V248H288V406.545ZM320,280h56v94.545H320Z" class="ci-primary"/>
  <path fill="var(--ci-primary-color, currentColor)" d="M271.078,33.749a34,34,0,0,0-47.066.984L32,226.745V496H144V336h64V496H480V225.958ZM448,464H240V304H112V464H64V240L249.412,57.356V57.3L448,240Z" class="ci-primary"/>
</svg>

<svg viewBox="0 0 512 512" xmlns="http://www.w3.org/2000/svg"><g><path d="M408 406.54V247.99H288v158.54Zm-88-126.55h56v94.54h-56Z"/><path d="M271.078 33.74v0c-13.42-12.35-34.18-11.91-47.07.98L31.98 226.73v269.255h112v-160h64v160h272V225.94Zm176.92 430.251h-208v-160h-128v160h-48v-224L249.41 57.34v-.06l198.588 182.7Z"/></g></svg>
